X:1
T:Title
L:1/8
Q:1/4=100
M:2/4
K:Eb
V:1 treble nm="Grand Piano"
V:1
 z C CD | E2 C2 | E2 GF- | F4 | z F FG | A2 F2 | A2 GG- | G4 | z G GG | =B2 G2 | F2 G2 | =B2 GG- | %12
 G4 | z G GA | GF ED | C4 | z C CD | E2 C2 | E2 AG- | G4 | z C CD | E2 G2 | c2 GA- | A4 | z2 AB | %25
 c2 BA | c2 G2 | z G G=B | =B4 | z G G=B | =BG Bd | c4 |] %32

